X: 25096
T: Maids Of Selma, The
R: jig
M: 6/8
K: Gmajor
|:G2E EDE|G3 dee|d2B BAG|AcB AGF|
G2E E3|G3 gBe|d2B BAG|1 ABA GBA:|2 ABA GBc||
|:dB/c/d g3|dee edB|d2e g2a|bee edB|
GB/c/d gBe|dee edB|d2e g2a|b3 a3|
g3 efg|f3 dB/c/d|e2B BAB|G2E EDE|
G2E EDE|G2g gBe|dgB BAG|ABA GBA||

